img/experience/TATA_CLIQ.svg

<svg fill="none" height="60" viewBox="0 0 100 60" width="100" xmlns="http://www.w3.org/2000/svg" xmlns:xlink="http://www.w3.org/1999/xlink"><clipPath id="a"><path d="m0 0h100v59.1346h-100z"/></clipPath><g clip-path="url(#a)"><path d="m96.3549 58.9179c-.455-.1597-1.0448-.6574-2.6744-2.257-1.15-1.1287-2.1264-2.0522-2.1699-2.0522-.0436 0-.7953.3762-1.6704.8359-2.7582 1.4488-5.1478 2.0423-8.2057 2.038-5.126-.0071-9.9221-2.4323-13.069-6.6086-2.2758-3.0201-3.3385-6.1493-3.3365-9.8243.0015-2.1171.128-3.0267.6654-4.7733 1.314-4.2702 4.3709-7.9167 8.4017-10.0224 2.4121-1.26 4.7613-1.8324 7.5175-1.8315 4.6232.0015 8.5236 1.608 11.7649 4.8458 3.0492 3.046 4.5861 6.5638 4.8065 11.0021.1711 3.444-.5536 6.1065-2.6916 9.8892l-.3046.5388 2.029 1.9577c2.5852 2.4943 2.8902 3.0817 2.3685 4.5594-.2704.7654-.8772 1.3572-1.7112 1.6689-.8106.303-.945.3056-1.7202.0335z" fill="#000"/><path d="m84.8678 51.64c3.7327-1.0244 6.7039-4.0385 7.7445-7.8563.4156-1.5249.4185-4.3778.0058-5.812-1.1212-3.8973-4.1024-6.8127-8.0536-7.8761-1.4301-.3849-3.8388-.3815-5.3085.0075-6.4632 1.7105-10.2312 8.4788-8.0487 14.4575 1.0191 2.7919 3.3829 5.3113 6.1442 6.5489 2.2845 1.0239 5.016 1.2167 7.5162.5305z" fill="#f7f7f7"/><g fill="#000"><path d="m11.988 57.5744c-2.12691-.3062-4.67135-1.1928-6.10707-2.1278-1.17581-.7657-2.75231-2.431-3.4183-3.6108-1.06645-1.8893-2.021789-5.2642-2.350645-8.3042-.386433-3.5722.246632-8.0584 1.599685-11.3362 1.51671-3.6743 4.27947-6.0645 8.20124-7.0955 1.68269-.4424 2.98849-.5938 5.12299-.5939 4.5415-.0003 7.9092 1.2709 10.4252 3.9352 1.4052 1.488 1.7748 2.5692 1.2629 3.6948-.6388 1.405-2.5036 1.9062-3.692.9923-.2503-.1924-.9654-.8044-1.5892-1.3598-2.0102-1.7901-3.5887-2.3534-6.6015-2.3558-1.6773-.0014-2.0794.0402-2.9181.3011-2.26678.7053-3.85519 2.0084-4.78241 3.9233-1.19355 2.4649-1.73988 7.1177-1.24549 10.6071.69325 4.893 2.40916 7.291 5.9076 8.256 1.2018.3315 5.413.3242 6.5402-.0114 1.0665-.3175 2.2942-1.0058 3.349-1.8776 1.6311-1.3482 1.9651-1.5726 2.6419-1.7748.8569-.2561 1.5102-.1015 2.0726.4904.5732.6033.8206 1.1625.8206 1.8551 0 .8454-.3107 1.4091-1.3592 2.4659-2.0938 2.1104-4.84 3.3672-8.5873 3.9302-1.0793.1621-4.1564.1601-5.2927-.0034z"/><path d="m33.5871 56.9236c-.6657-.1988-1.1425-.5864-1.4668-1.1922l-.2888-.5397-.0359-13.7932c-.0253-9.7324.0065-13.997.1081-14.4857.2568-1.2354 1.3227-2.1021 2.5855-2.1021 1.1595 0 2.0339.5254 2.4795 1.4899.2275.4924.2396 1.1452.2423 13.1176l.0029 12.5994h6.0054 6.0053l.6689.3329c.5591.2783.7254.4486 1.0141 1.0379.6509 1.3291.2442 2.6508-1.0235 3.3261-.5434.2895-.5484.2897-8.1957.3165-4.9792.0174-7.8089-.0201-8.1012-.1074z"/><path d="m57.0422 56.8916c-.742-.2649-1.2377-.6845-1.5361-1.3001-.2735-.5644-.2765-.667-.3029-10.137l-.0267-9.5667.3242-.6469c.4631-.9239 1.1921-1.3988 2.2506-1.4662.6452-.041.9305.005 1.3466.217.7206.3672 1.2911 1.0966 1.455 1.86.087.4053.1357 3.8495.1357 9.6062 0 7.8683-.0258 9.061-.2087 9.6779-.4407 1.4866-1.9839 2.2748-3.4377 1.7558z"/></g><path d="m58.419 30.4349c-.5866-.3162-4.4746-4.2029-4.6823-4.6808-.2678-.6157-.2304-1.7645.0769-2.3662.6336-1.2406 2.3523-1.7731 3.6025-1.116.1949.1025 1.2974 1.1383 2.4499 2.3018 1.7822 1.7992 2.1186 2.2019 2.2495 2.6931.2936 1.1013-.1455 2.3028-1.0772 2.9478-.6432.4453-1.9917.5587-2.6193.2203z" fill="#ff1744"/><path d="m35.9167 10.106v-5.50617h-2.2048-2.2048v-2.26724-2.2672442h7.3278 7.3277v2.2672442 2.26724h-2.2075-2.2076l.0352 5.50617.0351 5.5062h-2.9506-2.9505z" fill="#000"/><path d="m4.6763 4.64082h-4.561554v-4.5754189h15.388554v4.5754189h-4.4147v10.99608h-6.4123z" fill="#000"/><path d="m26.5775 15.6369-3.2808-9.27996-3.24 9.27996h-6.158l6.0396-15.5714989h6.6878l6.1851 15.5714989z" fill="#000"/><path d="m35.9027 4.64082h-4.5626v-4.5754189h15.3879v4.5754189h-4.4133v10.99608h-6.412z" fill="#486aae"/><path d="m57.8039 15.6369-3.2797-9.27996-3.2412 9.27996h-6.158l6.0416-15.5714989h6.6858l6.183 15.5714989z" fill="#000"/><path d="m42.3149 4.64082v10.99618h-6.4123v-10.99618h-4.5615v-4.575417h15.3885v4.575417z" fill="#000"/></g></svg>

<svg width="100" height="60" viewBox="0 0 100 60" fill="none" xmlns="http://www.w3.org/2000/svg">
<g clip-path="url(#clip0_846_1341)">
<path d="M96.3549 58.9179C95.8999 58.7582 95.3101 58.2605 93.6805 56.6609C92.5305 55.5322 91.5541 54.6087 91.5106 54.6087C91.467 54.6087 90.7153 54.9849 89.8402 55.4446C87.082 56.8934 84.6924 57.4869 81.6345 57.4826C76.5085 57.4755 71.7124 55.0503 68.5655 50.874C66.2897 47.8539 65.227 44.7247 65.229 41.0497C65.2305 38.9326 65.357 38.023 65.8944 36.2764C67.2084 32.0062 70.2653 28.3597 74.2961 26.254C76.7082 24.994 79.0574 24.4216 81.8136 24.4225C86.4368 24.424 90.3372 26.0305 93.5785 29.2683C96.6277 32.3143 98.1646 35.8321 98.385 40.2704C98.5561 43.7144 97.8314 46.3769 95.6934 50.1596L95.3888 50.6984L97.4178 52.6561C100.003 55.1504 100.308 55.7378 99.7863 57.2155C99.5159 57.9809 98.9091 58.5727 98.0751 58.8844C97.2645 59.1874 97.1301 59.19 96.3549 58.9179V58.9179Z" fill="black"/>
<path d="M84.8678 51.64C88.6005 50.6156 91.5717 47.6015 92.6123 43.7837C93.0279 42.2588 93.0308 39.4059 92.6181 37.9717C91.4969 34.0744 88.5157 31.159 84.5645 30.0956C83.1344 29.7107 80.7257 29.7141 79.256 30.1031C72.7928 31.8136 69.0248 38.5819 71.2073 44.5606C72.2264 47.3525 74.5902 49.8719 77.3515 51.1095C79.636 52.1334 82.3675 52.3262 84.8677 51.64L84.8678 51.64Z" fill="#F7F7F7"/>
<path d="M11.988 57.5744C9.86109 57.2682 7.31665 56.3816 5.88093 55.4466C4.70512 54.6809 3.12862 53.0156 2.46263 51.8358C1.39618 49.9465 0.440841 46.5716 0.111985 43.5316C-0.274448 39.9594 0.358617 35.4732 1.71167 32.1954C3.22838 28.5211 5.99114 26.1309 9.91291 25.0999C11.5956 24.6575 12.9014 24.5061 15.0359 24.506C19.5774 24.5057 22.9451 25.7769 25.4611 28.4412C26.8663 29.9292 27.2359 31.0104 26.724 32.136C26.0852 33.541 24.2204 34.0422 23.032 33.1283C22.7817 32.9359 22.0666 32.3239 21.4428 31.7685C19.4326 29.9784 17.8541 29.4151 14.8413 29.4127C13.164 29.4113 12.7619 29.4529 11.9232 29.7138C9.65642 30.4191 8.06801 31.7222 7.14079 33.6371C5.94724 36.102 5.40091 40.7548 5.8953 44.2442C6.58855 49.1372 8.30446 51.5352 11.8029 52.5002C13.0047 52.8317 17.2159 52.8244 18.3431 52.4888C19.4096 52.1713 20.6373 51.483 21.6921 50.6112C23.3232 49.263 23.6572 49.0386 24.334 48.8364C25.1909 48.5803 25.8442 48.7349 26.4066 49.3268C26.9798 49.9301 27.2272 50.4893 27.2272 51.1819C27.2272 52.0273 26.9165 52.591 25.868 53.6478C23.7742 55.7582 21.028 57.015 17.2807 57.578C16.2014 57.7401 13.1243 57.7381 11.988 57.5746V57.5744Z" fill="black"/>
<path d="M33.5871 56.9236C32.9214 56.7248 32.4446 56.3372 32.1203 55.7314L31.8315 55.1917L31.7956 41.3985C31.7703 31.6661 31.8021 27.4015 31.9037 26.9128C32.1605 25.6774 33.2264 24.8107 34.4892 24.8107C35.6487 24.8107 36.5231 25.3361 36.9687 26.3006C37.1962 26.793 37.2083 27.4458 37.211 39.4182L37.2139 52.0176H43.2193H49.2246L49.8935 52.3505C50.4526 52.6288 50.6189 52.7991 50.9076 53.3884C51.5585 54.7175 51.1518 56.0392 49.8841 56.7145C49.3407 57.004 49.3357 57.0042 41.6884 57.031C36.7092 57.0484 33.8795 57.0109 33.5872 56.9236H33.5871Z" fill="black"/>
<path d="M57.0422 56.8916C56.3002 56.6267 55.8045 56.2071 55.5061 55.5915C55.2326 55.0271 55.2296 54.9245 55.2032 45.4545L55.1765 35.8878L55.5007 35.2409C55.9638 34.317 56.6928 33.8421 57.7513 33.7747C58.3965 33.7337 58.6818 33.7797 59.0979 33.9917C59.8185 34.3589 60.389 35.0883 60.5529 35.8517C60.6399 36.257 60.6886 39.7012 60.6886 45.4579C60.6886 53.3262 60.6628 54.5189 60.4799 55.1358C60.0392 56.6224 58.496 57.4106 57.0422 56.8916H57.0422Z" fill="black"/>
<path d="M58.419 30.4349C57.8324 30.1187 53.9444 26.232 53.7367 25.7541C53.4689 25.1384 53.5063 23.9896 53.8136 23.3879C54.4472 22.1473 56.1659 21.6148 57.4161 22.2719C57.611 22.3744 58.7135 23.4102 59.866 24.5737C61.6482 26.3729 61.9846 26.7756 62.1155 27.2668C62.4091 28.3681 61.97 29.5696 61.0383 30.2146C60.3951 30.6599 59.0466 30.7733 58.419 30.4349Z" fill="#FF1744"/>
<path d="M35.9167 10.106V4.59983H33.7119H31.5071V2.33259V0.0653458H38.8349H46.1626V2.33259V4.59983H43.9551H41.7475L41.7827 10.106L41.8178 15.6122L38.8672 15.6122L35.9167 15.6122L35.9167 10.106Z" fill="black"/>
<path d="M4.6763 4.64082H0.114746V0.0654011H15.5033V4.64082H11.0886V15.6369H4.6763V4.64082Z" fill="black"/>
<path d="M26.5775 15.6369L23.2967 6.35694L20.0567 15.6369H13.8987L19.9383 0.0654011H26.6261L32.8112 15.6369H26.5775Z" fill="black"/>
<path d="M35.9027 4.64082H31.3401V0.0654011H46.728V4.64082H42.3147V15.6369H35.9027V4.64082Z" fill="#486AAE"/>
<path d="M57.8039 15.6369L54.5242 6.35694L51.283 15.6369H45.125L51.1666 0.0654011H57.8524L64.0354 15.6369H57.8039Z" fill="black"/>
<path d="M42.3149 4.64082V15.637H35.9026V4.64082H31.3411V0.065403H46.7296V4.64082H42.3149Z" fill="black"/>
</g>
<defs>
<clipPath id="clip0_846_1341">
<rect width="100" height="59.1346" fill="white"/>
</clipPath>
</defs>
</svg>
